X:1
T:Tuscany, 87.87.87 D
T:Tuscany, 87.87.87 D
T:Harry Sanders, 1887
T:Public Domain Courtesy of the Cyber Hymnal™
C:Harry Sanders, 1887
Z:Public Domain
Z:Courtesy of the Cyber Hymnal™
%%score ( 1 2 ) ( 3 4 )
L:1/8
Q:1/4=90
M:3/4
K:G
V:1 treble 
V:2 treble 
V:3 bass 
V:4 bass 
V:1
 D>[DG] | [DB]3 [Ec] [DB]>[DG] | [DB]2 [DG]2 [DG]>[DF] | [CE]2 [Ec]2 [DB]>[DG] | [FA]4 D>[DG] | %5
 [DB]3 [Ec] [DB]>[DG] | [DB]2 [DG]2 [DG]>[DF] | [CE]3 [Ec] [DB]<[DA] | [DG]4 [EG]>[^DF] | %9
 E3 [^DF] [EG]>[EA] | [^DB]2 [DF]2 [EG]>[DF] | E3 [^DF] [EG]>[EA] | [^DB]4 =D>[DG] | %13
 [DB]3 [DG] [DB]>[=Fd] | [Ed]2 [Ec]2 [EB]>[EA] | [DG]3 [DB] [DB]>[DA] | [DG]4 [GB]>[Ac] | %17
 [Bd] [GB]3 [EA]>[EG] | [EG] [CE]3 D>[DG] | [DB]3 [Dd] [Dc][DB] | [DA]4 [GB]>[Ac] | %21
 [Bd] [GB]3 [EA]>[EG] | [EG] [CE]3 D>[DG] | [DB]3 [Dc] [DB][DA] | [DG]4 |] %25
V:2
 D3/2 x/ | x6 | x6 | x6 | x4 D3/2 x/ | x6 | x6 | x6 | x6 | E3 x3 | x6 | E3 x3 | x4 D3/2 x/ | x6 | %14
 x6 | x6 | x6 | x6 | x4 D3/2 x/ | x6 | x6 | x6 | x4 D3/2 x/ | x6 | x4 |] %25
V:3
 [G,B,]>[G,B,] | G,3 G, G,>[G,B,] | G,2 [G,B,]2 [G,,B,]>[B,,G,] | [C,G,]2 [C,G,]2 G,>[G,B,] | %4
 (D2 C2) [G,B,]>[G,B,] | G,3 G, G,>[G,B,] | G,2 [G,B,]2 [G,,B,]>[B,,G,] | %7
 [C,G,]3 [C,G,] [D,G,]<[D,C] | [G,,B,]4 [E,B,]>[E,A,] | [E,G,]3 [E,A,] [E,B,]>[E,B,] | %10
 [B,,B,]2 [B,,B,]2 [E,B,]>[E,A,] | [E,G,]3 [E,A,] [E,G,]>[C,E,] | [B,,F,]4 [G,B,]>[G,B,] | %13
 G,3 [G,B,] G,>G, | [C,G,]2 [C,G,]2 [C,C]>[C,C] | [D,B,]3 [D,G,] [D,G,]>[D,C] | [G,,B,]4 G,>G, | %17
 G, G,3 [C,G,]>[C,G,] | [C,G,] [C,G,]3 [G,B,]>[G,B,] | G,3 [G,B,] [G,A,]G, | [D,F,]4 G,>G, | %21
 G, G,3 [C,G,]>[C,G,] | [C,G,] [C,G,]3 [G,B,]>[G,B,] | G,3 [D,A,] [D,G,][D,C] | [G,,B,]4 |] %25
V:4
 x2 | G,3 G, G,3/2 x/ | G,2 x4 | x4 G,3/2 x/ | D,4 x2 | G,3 G, G,3/2 x/ | G,2 x4 | x6 | x6 | x6 | %10
 x6 | x6 | x6 | G,3 G,>G, x | x6 | x6 | x4 G,>G, | G, G,3 x2 | x6 | G,3 G, x2 | x4 G,>G, | %21
 G, G,3 x2 | x6 | G,3 x3 | x4 |] %25

